svgs/light/phone-slash.svg

<svg xmlns="http://www.w3.org/2000/svg" viewBox="0 0 640 512"><!--! Font Awesome Pro 6.0.0-alpha3 by @fontawesome - https://fontawesome.com License - https://fontawesome.com/license (Commercial License) --><path d="M131.1 480c-6.143 0-11.61-4.344-12.99-10.31l-21.8-94.47c-1.438-6.25 1.812-12.66 7.719-15.22l101.6-43.56c5.344-2.219 11.8-.7187 15.5 3.844l41.39 50.5c4.703 5.75 12.8 7.531 19.44 4.219c17.02-8.375 33.27-18.16 48.61-29.19l-26.81-21.18c-8.117 5.473-16.08 11.18-24.7 15.87L245.9 300C233.4 284.6 211.7 279.3 193.2 286.1l-101.8 43.66c-.0156 .0313 .0156 0 0 0c-20.08 8.688-31.13 30.48-26.24 51.8l21.8 94.47C91.71 497.6 109.9 512 131.1 512c106.9 0 205.1-37.96 281.9-101l-25.95-20.49C316.7 446.3 227.8 480 131.1 480zM404.4 215.2c-3.25 5.971-7.363 11.38-10.99 17.11l25.65 20.26c7.203-11.13 14-22.53 19.88-34.46c3.281-6.672 1.531-14.72-4.219-19.44l-50.5-41.38c-4.578-3.781-6.109-10.03-3.75-15.55l43.58-101.7c2.141-4.938 7.018-8.031 12.25-8.031c.9844 0 1.984 .1094 2.984 .3438l94.41 21.91C539.8 55.64 544 60.94 544 67.12c0 84.72-25.72 163.5-69.66 229.1l25.22 19.92C547.8 245 576 159.3 576 67.12c0-21.22-14.47-39.34-35.17-44.06l-94.39-21.91c-21.21-4.891-43.1 6.125-51.81 26.22l-43.61 101.8c-7.984 18.69-2.828 39.92 12.84 52.84L404.4 215.2zM638 488.3c-1.002-1.828-2.377-3.484-4.111-4.855L25.9 3.234C23.25 1.148 20.09 .3242 16.95 .1328C16.36 .1016 15.78-.0234 15.19 .0039C13.7 .0859 12.27 .4883 10.85 .9727C10.17 1.207 9.457 1.297 8.811 1.621C6.801 2.633 4.928 4.004 3.436 5.875C2.068 7.613 1.117 9.547 .5684 11.55C.0195 13.55-.1289 15.63 .1113 17.67s.8691 4.027 1.869 5.852c1.002 1.824 2.377 3.48 4.111 4.852l608 480.2C617 510.9 620.5 512 624 512c4.719 0 9.406-2.094 12.56-6.078c2.734-3.473 3.805-7.727 3.324-11.79C639.6 492.1 639 490.1 638 488.3z"/></svg>

<svg xmlns="http://www.w3.org/2000/svg" viewBox="0 0 640 512"><!-- Font Awesome Pro 6.0.0-alpha2 by @fontawesome - https://fontawesome.com License - https://fontawesome.com/license (Commercial License) --><path d="M131.123 480C124.98 480 119.511 475.656 118.136 469.688L96.34 375.217C94.902 368.967 98.152 362.561 104.058 359.998L205.638 316.436C210.982 314.217 217.435 315.717 221.138 320.279L262.529 370.779C267.232 376.529 275.326 378.311 281.966 374.998C298.986 366.623 315.238 356.834 330.574 345.809L303.761 324.631C295.644 330.104 287.677 335.807 279.06 340.498L245.92 300.029C233.373 284.576 211.67 279.264 193.17 286.951L91.418 330.592C91.402 330.623 91.386 330.623 91.371 330.623C71.293 339.311 60.261 361.092 65.152 382.404L86.949 476.875C91.715 497.562 109.886 512 131.123 512C238.049 512 336.252 474.043 413.056 410.951L387.107 390.457C316.666 446.346 227.818 480 131.123 480ZM404.373 215.186C401.123 221.156 397.009 226.564 393.381 232.299L419.031 252.557C426.234 241.428 433.033 230.025 438.906 218.092C442.187 211.42 440.437 203.373 434.687 198.654L384.185 157.279C379.607 153.498 378.076 147.248 380.435 141.732L424.013 40.029C426.154 35.092 431.031 31.998 436.265 31.998C437.25 31.998 438.25 32.107 439.25 32.342L533.656 54.248C539.765 55.639 544 60.936 544 67.123C544 151.84 518.283 230.635 474.341 296.24L499.566 316.16C547.785 245.049 576 159.326 576 67.123C576 45.904 561.531 27.779 540.828 23.061L446.437 1.154C425.232 -3.736 403.341 7.279 394.623 27.373L351.013 129.154C343.029 147.842 348.185 169.076 363.857 181.998L404.373 215.186ZM638.019 488.281C637.017 486.453 635.642 484.797 633.908 483.426L25.904 3.234C23.254 1.148 20.091 0.324 16.945 0.133C16.357 0.102 15.775 -0.023 15.187 0.004C13.699 0.086 12.265 0.488 10.849 0.973C10.172 1.207 9.457 1.297 8.81 1.621C6.8 2.633 4.927 4.004 3.435 5.875C2.068 7.613 1.117 9.547 0.568 11.547C0.019 13.555 -0.129 15.633 0.111 17.668S0.98 21.695 1.98 23.52C2.982 25.344 4.357 27 6.091 28.371L614.095 508.562C617.033 510.875 620.533 512 624.002 512C628.72 512 633.408 509.906 636.564 505.922C639.299 502.449 640.369 498.195 639.888 494.129C639.648 492.094 639.019 490.102 638.019 488.281Z"/></svg>
